azure-patterns/svg-azure-policy-alt.svg

<svg xmlns="http://www.w3.org/2000/svg" viewBox="0 0 114 116">
                                
                            
  <path d="M106.547 87.0001C108.013 88.4501 110.457 88.4501 111.923 87.0001C113.389 85.5501 113.389 83.1334 111.923 81.6834L94.3281 64.2834C93.3506 63.3167 91.8843 63.3167 90.9069 64.2834L88.9519 66.2167C87.9744 67.1834 87.9744 68.6334 88.9519 69.6001L106.547 87.0001Z" fill="#303030"></path>
  <path opacity="0.1" d="M89.9292 64.7667L112.412 87.0001C113.878 85.5501 113.878 83.1334 112.412 81.6834L94.8167 64.2834C93.8392 63.3167 92.3729 63.3167 91.3954 64.2834L89.9292 64.7667Z" fill="#303030"></path>
  <path d="M1.4668 1.93341H74.7787V25.1334C74.7787 25.1334 62.56 32.3834 62.0713 43.0167C62.0713 52.2001 66.9588 60.4167 75.2674 64.2834V82.1667L74.7787 113.583L1.95554 112.617L1.4668 1.93341Z" fill="#303030"></path>
  <path d="M19.061 32.8666H67.4469V28.0333H19.061V32.8666Z" fill="#1A1A1F"></path>
  <path d="M19.061 52.2002H67.4469V47.3668H19.061V52.2002Z" fill="#1A1A1F"></path>
  <path d="M19.061 71.5334H67.4469V66.7001H19.061V71.5334Z" fill="#1A1A1F"></path>
  <path d="M72.8231 63.8V111.167H4.88746V67.6667V53.1667V4.83333H72.8231V25.6167L77.7106 24.1667V0H0V53.1667V67.6667V116H77.7106V64.7667L72.8231 63.8Z" fill="#1A1A1F"></path>
  <path d="M69.4014 64.7667C80.7383 64.7667 89.9287 55.6781 89.9287 44.4667C89.9287 33.2554 80.7383 24.1667 69.4014 24.1667C58.0644 24.1667 48.874 33.2554 48.874 44.4667C48.874 55.6781 58.0644 64.7667 69.4014 64.7667Z" fill="#303030"></path>
  <path d="M46.4302 44.4666C46.4302 57.0333 56.6938 67.1833 68.9125 67.1833C74.2887 67.1833 80.1536 65.2499 84.0636 61.3833L87.4848 64.7666C86.5073 65.7333 86.5073 67.6666 87.4848 68.6333L107.035 87.9666C108.501 89.4166 111.433 89.4166 112.9 87.9666C114.366 86.5166 114.366 83.6166 112.9 82.1666L93.3498 62.8333C92.3723 61.8666 90.4173 61.8666 89.4398 62.8333L86.0186 59.4499C94.3273 50.2666 93.3498 35.7666 84.0636 27.5499C74.7774 19.3333 60.1151 20.2999 51.8064 29.4833C48.3852 33.3499 46.4302 38.6666 46.4302 44.4666ZM89.9286 66.6999L91.8835 64.7666L111.433 84.0999C111.922 84.5833 111.922 85.5499 111.433 86.0333C110.945 86.5166 109.967 86.5166 109.478 86.0333L89.9286 66.6999ZM48.8739 44.4666C48.8739 33.3499 57.6713 24.6499 68.9125 24.6499C80.1536 24.6499 88.9511 33.3499 88.9511 44.4666C88.9511 55.5833 80.1536 64.2833 68.9125 64.2833C58.1601 63.7999 49.3627 55.0999 48.8739 44.4666Z" fill="#1A1A1F"></path>
</svg>

<svg xmlns="http://www.w3.org/2000/svg" viewBox="0 0 114 116"><path d="M106.547 87c1.466 1.45 3.91 1.45 5.376 0 1.466-1.45 1.466-3.867 0-5.317l-17.595-17.4c-.977-.966-2.444-.966-3.421 0l-1.955 1.934c-.978.966-.978 2.416 0 3.383L106.547 87z" fill="#303030"/><path opacity=".1" d="M89.93 64.767L112.411 87c1.466-1.45 1.466-3.867 0-5.317l-17.595-17.4c-.978-.966-2.444-.966-3.422 0l-1.466.484z" fill="#303030"/><path d="M1.467 1.933h73.312v23.2S62.56 32.383 62.07 43.017c0 9.183 4.888 17.4 13.196 21.266v17.884l-.488 31.416-72.823-.966-.49-110.684z" fill="#303030"/><path d="M19.061 32.867h48.386v-4.834H19.06v4.834zM19.061 52.2h48.386v-4.833H19.06V52.2zM19.061 71.533h48.386V66.7H19.06v4.833z" fill="#1A1A1F"/><path d="M72.823 63.8v47.367H4.887V4.833h67.936v20.784l4.888-1.45V0H0v116h77.71V64.767l-4.887-.967z" fill="#1A1A1F"/><path d="M69.401 64.767c11.337 0 20.528-9.089 20.528-20.3 0-11.212-9.19-20.3-20.528-20.3-11.337 0-20.527 9.088-20.527 20.3 0 11.211 9.19 20.3 20.527 20.3z" fill="#303030"/><path d="M46.43 44.467c0 12.566 10.264 22.716 22.482 22.716 5.377 0 11.242-1.933 15.152-5.8l3.42 3.384c-.977.966-.977 2.9 0 3.866l19.551 19.334c1.466 1.45 4.398 1.45 5.865 0 1.466-1.45 1.466-4.35 0-5.8L93.35 62.833c-.978-.966-2.933-.966-3.91 0l-3.421-3.383c8.308-9.183 7.33-23.683-1.955-31.9-9.287-8.217-23.949-7.25-32.258 1.933-3.42 3.867-5.376 9.184-5.376 14.984zM89.93 66.7l1.954-1.933 19.55 19.333c.489.483.489 1.45 0 1.933-.488.484-1.466.484-1.955 0L89.928 66.7zM48.874 44.467c0-11.117 8.797-19.817 20.038-19.817 11.242 0 20.04 8.7 20.04 19.817 0 11.116-8.798 19.816-20.04 19.816C58.16 63.8 49.362 55.1 48.874 44.467z" fill="#1A1A1F"/></svg>
